AS/assets/images/icons/korp.svg

<svg width="150" height="150" viewBox="0 0 150 150" fill="none" xmlns="http://www.w3.org/2000/svg">
<path fill-rule="evenodd" clip-rule="evenodd" d="M140.757 11.7424H9.24287C4.14609 11.7424 0 15.8885 0 20.985V110.227C0 115.324 4.14609 119.47 9.24287 119.47H53.7231L51.924 133.863H44.4697C43.256 133.863 42.2725 134.847 42.2725 136.06C42.2725 137.274 43.256 138.257 44.4697 138.257H105.53C106.744 138.257 107.728 137.274 107.728 136.06C107.728 134.847 106.744 133.863 105.53 133.863H98.0763L96.2769 119.47H140.757C145.854 119.47 150 115.324 150 110.227V20.985C150 15.8885 145.854 11.7424 140.757 11.7424ZM56.3528 133.863L58.1522 119.47H66.2391L67.0324 122.643C67.9482 126.306 71.2248 128.863 75.0003 128.863C78.7758 128.863 82.0523 126.306 82.9682 122.643L83.7615 119.47H91.8483L93.6472 133.863H56.3528ZM70.7687 119.47H79.231L78.7043 121.577C78.2786 123.28 76.7555 124.469 74.9997 124.469C73.2439 124.469 71.7211 123.279 71.2951 121.577L70.7687 119.47ZM145.605 110.227C145.605 112.9 143.43 115.075 140.757 115.075H9.24287C6.56953 115.075 4.39453 112.9 4.39453 110.227V20.985C4.39453 18.3117 6.56953 16.137 9.24287 16.137H140.757C143.43 16.137 145.605 18.3117 145.605 20.985V110.227ZM124.318 21.1365H11.5908C10.3771 21.1365 9.39355 22.12 9.39355 23.3337V107.879C9.39355 109.092 10.3771 110.076 11.5908 110.076H16.288C17.5018 110.076 18.4853 109.092 18.4853 107.879C18.4855 106.665 17.5018 105.681 16.2883 105.681H13.7884V25.531H124.318C125.531 25.531 126.515 24.5472 126.515 23.3337C126.515 22.12 125.531 21.1365 124.318 21.1365ZM133.712 21.1365H138.409C139.622 21.1365 140.606 22.12 140.606 23.3337V107.879C140.606 109.092 139.622 110.076 138.409 110.076H25.6821C24.4684 110.076 23.4849 109.092 23.4849 107.879C23.4849 106.665 24.4684 105.681 25.6821 105.681H136.212V25.531H133.712C132.498 25.531 131.514 24.5472 131.514 23.3337C131.514 22.12 132.498 21.1365 133.712 21.1365Z" fill="#131313"/>
<path d="M104.121 90.0149H103.121V53.3182C103.121 52.8328 102.728 52.4393 102.242 52.4393H91.8486V50.5001C91.8486 49.4974 91.033 48.6818 90.0304 48.6818H84.2909C83.8463 43.9461 79.8499 40.2273 75 40.2273C70.1501 40.2273 66.1537 43.9461 65.7093 48.6818H59.9698C58.9671 48.6818 58.1515 49.4974 58.1515 50.5001V52.4393H47.7577C47.2723 52.4393 46.8787 52.8328 46.8787 53.3182V55.1968C46.8787 55.6822 47.2723 56.0757 47.7577 56.0757C48.243 56.0757 48.6366 55.6822 48.6366 55.1968V54.1971H66.9048C68.5168 57.0007 71.5405 58.8941 75 58.8941C78.4595 58.8941 81.4832 57.0007 83.0952 54.1971H101.363V77.8029H89.0304V74.9243C89.0304 74.4389 88.6369 74.0454 88.1515 74.0454H61.8485C61.3631 74.0454 60.9696 74.4389 60.9696 74.9243V77.8029H48.6366V58.9549C48.6366 58.4695 48.243 58.076 47.7577 58.076C47.2723 58.076 46.8787 58.4695 46.8787 58.9549V90.015H45.8789C45.3935 90.015 45 90.4085 45 90.8939C45 91.3793 45.3935 91.7728 45.8789 91.7728H104.121C104.606 91.7728 105 91.3793 105 90.8939C105 90.4085 104.606 90.0149 104.121 90.0149ZM59.9093 52.4393V50.5001C59.9093 50.4667 59.9364 50.4396 59.9698 50.4396H65.7093C65.7742 51.1308 65.915 51.7999 66.1229 52.4393H59.9093ZM75 57.1363C70.8227 57.1363 67.4244 53.7378 67.4244 49.5607C67.4244 45.3835 70.8229 41.9851 75 41.9851C79.1771 41.9851 82.5756 45.3835 82.5756 49.5607C82.5756 53.7378 79.1773 57.1363 75 57.1363ZM84.2907 50.4396H90.0302C90.0636 50.4396 90.0907 50.4667 90.0907 50.5001V52.4393H83.8771C84.085 51.7999 84.2259 51.1308 84.2907 50.4396ZM101.363 90.0149H87.1515V84.3185C87.1515 83.8331 86.758 83.4396 86.2726 83.4396C85.7872 83.4396 85.3937 83.8331 85.3937 84.3185V90.0149H75.8789V79.5607H85.3937V80.5607C85.3937 81.046 85.7872 81.4396 86.2726 81.4396C86.758 81.4396 87.1515 81.046 87.1515 80.5607V79.5607H91.0301V86.1969C91.0301 86.6823 91.4236 87.0758 91.909 87.0758H98.4847C98.9701 87.0758 99.3636 86.6823 99.3636 86.1969V79.5607H101.363V90.0149H101.363ZM74.1211 79.5607V90.0149H64.6062V79.5607H74.1211ZM92.788 79.5607H97.6059V85.318H92.788V79.5607ZM62.7274 75.8031H87.2725V77.8028H62.7274V75.8031ZM52.3942 79.5607H57.2121V85.318H52.3942V79.5607ZM48.6366 79.5607H50.6363V86.1969C50.6363 86.6823 51.0298 87.0758 51.5152 87.0758H58.0909C58.5763 87.0758 58.9698 86.6823 58.9698 86.1969V79.5607H62.8484V90.0149H48.6366V79.5607Z" fill="#131313"/>
<path d="M58.0908 72.0456C58.5762 72.0456 58.9697 71.652 58.9697 71.1666V62.7122C58.9697 62.2268 58.5762 61.8333 58.0908 61.8333H51.5151C51.0297 61.8333 50.6362 62.2268 50.6362 62.7122V71.1666C50.6362 71.652 51.0297 72.0456 51.5151 72.0456H58.0908ZM52.394 63.5911H57.212V70.2877H52.394V63.5911Z" fill="#131313"/>
<path d="M98.4849 72.0456C98.9703 72.0456 99.3638 71.652 99.3638 71.1666V62.7122C99.3638 62.2268 98.9703 61.8333 98.4849 61.8333H91.9092C91.4238 61.8333 91.0303 62.2268 91.0303 62.7122V71.1666C91.0303 71.652 91.4238 72.0456 91.9092 72.0456H98.4849ZM92.7882 63.5911H97.6061V70.2877H92.7882V63.5911Z" fill="#131313"/>
<path d="M61.8486 72.0456H88.1515C88.6369 72.0456 89.0304 71.652 89.0304 71.1666V62.7122C89.0304 62.2268 88.6369 61.8333 88.1515 61.8333H61.8486C61.3632 61.8333 60.9697 62.2268 60.9697 62.7122V71.1666C60.9697 71.652 61.3632 72.0456 61.8486 72.0456ZM74.1212 70.2877H69.3033V63.5911H74.1212V70.2877ZM75.879 63.5911H80.697V70.2877H75.879V63.5911ZM87.2727 70.2877H82.4548V63.5911H87.2727V70.2877ZM62.7275 63.5911H67.5455V70.2877H62.7275V63.5911Z" fill="#131313"/>
</svg>

<?xml version="1.0" encoding="utf-8"?>
<!-- Generator: Adobe Illustrator 22.1.0, SVG Export Plug-In . SVG Version: 6.00 Build 0)  -->
<svg version="1.1" id="Слой_1" xmlns="http://www.w3.org/2000/svg" xmlns:xlink="http://www.w3.org/1999/xlink" x="0px" y="0px"
	 viewBox="0 0 150 150" style="enable-background:new 0 0 150 150;" xml:space="preserve">
<style type="text/css">
	.st0{fill:#131313;}
</style>
<path class="st0" d="M140.8,11.7H9.2C4.1,11.7,0,15.9,0,21v89.2c0,5.1,4.1,9.2,9.2,9.2h44.5l-1.8,14.4h-7.5c-1.2,0-2.2,1-2.2,2.2
	c0,1.2,1,2.2,2.2,2.2h61.1c1.2,0,2.2-1,2.2-2.2c0-1.2-1-2.2-2.2-2.2h-7.5l-1.8-14.4h44.5c5.1,0,9.2-4.1,9.2-9.2V21
	C150,15.9,145.9,11.7,140.8,11.7z M56.4,133.9l1.8-14.4h8.1l0.8,3.2c0.9,3.7,4.2,6.2,8,6.2c3.8,0,7.1-2.6,8-6.2l0.8-3.2h8.1
	l1.8,14.4H56.4z M70.8,119.5h8.5l-0.5,2.1c-0.4,1.7-1.9,2.9-3.7,2.9c-1.8,0-3.3-1.2-3.7-2.9L70.8,119.5z M145.6,110.2
	c0,2.7-2.2,4.8-4.8,4.8H9.2c-2.7,0-4.8-2.2-4.8-4.8V21c0-2.7,2.2-4.8,4.8-4.8h131.5c2.7,0,4.8,2.2,4.8,4.8V110.2z M124.3,21.1H11.6
	c-1.2,0-2.2,1-2.2,2.2v84.5c0,1.2,1,2.2,2.2,2.2h4.7c1.2,0,2.2-1,2.2-2.2c0-1.2-1-2.2-2.2-2.2h-2.5V25.5h110.5c1.2,0,2.2-1,2.2-2.2
	C126.5,22.1,125.5,21.1,124.3,21.1z M133.7,21.1h4.7c1.2,0,2.2,1,2.2,2.2v84.5c0,1.2-1,2.2-2.2,2.2H25.7c-1.2,0-2.2-1-2.2-2.2
	c0-1.2,1-2.2,2.2-2.2h110.5V25.5h-2.5c-1.2,0-2.2-1-2.2-2.2C131.5,22.1,132.5,21.1,133.7,21.1z"/>
<g>
	<path class="st0" d="M104.1,90h-1V53.3c0-0.5-0.4-0.9-0.9-0.9H91.8v-1.9c0-1-0.8-1.8-1.8-1.8h-5.7c-0.4-4.7-4.4-8.5-9.3-8.5
		s-8.8,3.7-9.3,8.5H60c-1,0-1.8,0.8-1.8,1.8v1.9H47.8c-0.5,0-0.9,0.4-0.9,0.9v1.9c0,0.5,0.4,0.9,0.9,0.9c0.5,0,0.9-0.4,0.9-0.9v-1
		h18.3c1.6,2.8,4.6,4.7,8.1,4.7c3.5,0,6.5-1.9,8.1-4.7h18.3v23.6H89v-2.9c0-0.5-0.4-0.9-0.9-0.9H61.8c-0.5,0-0.9,0.4-0.9,0.9v2.9
		H48.6V59c0-0.5-0.4-0.9-0.9-0.9c-0.5,0-0.9,0.4-0.9,0.9V90h-1c-0.5,0-0.9,0.4-0.9,0.9c0,0.5,0.4,0.9,0.9,0.9h58.2
		c0.5,0,0.9-0.4,0.9-0.9C105,90.4,104.6,90,104.1,90z M59.9,52.4v-1.9c0,0,0-0.1,0.1-0.1h5.7c0.1,0.7,0.2,1.4,0.4,2H59.9z M75,57.1
		c-4.2,0-7.6-3.4-7.6-7.6c0-4.2,3.4-7.6,7.6-7.6s7.6,3.4,7.6,7.6C82.6,53.7,79.2,57.1,75,57.1z M90.1,52.4h-6.2
		c0.2-0.6,0.3-1.3,0.4-2H90c0,0,0.1,0,0.1,0.1V52.4z M92.8,79.6h4.8v5.8h-4.8V79.6z M62.7,75.8h24.5v2H62.7V75.8z M52.4,79.6h4.8
		v5.8h-4.8V79.6z M62.8,90H48.6V79.6h2v6.6c0,0.5,0.4,0.9,0.9,0.9h6.6c0.5,0,0.9-0.4,0.9-0.9v-6.6h3.9V90z M74.1,90h-9.5V79.6h9.5
		V90z M101.4,90H87.2v-5.7c0-0.5-0.4-0.9-0.9-0.9c-0.5,0-0.9,0.4-0.9,0.9V90h-9.5V79.6h9.5v1c0,0.5,0.4,0.9,0.9,0.9
		c0.5,0,0.9-0.4,0.9-0.9v-1H91v6.6c0,0.5,0.4,0.9,0.9,0.9h6.6c0.5,0,0.9-0.4,0.9-0.9v-6.6h2V90z"/>
	<path class="st0" d="M58.1,72c0.5,0,0.9-0.4,0.9-0.9v-8.5c0-0.5-0.4-0.9-0.9-0.9h-6.6c-0.5,0-0.9,0.4-0.9,0.9v8.5
		c0,0.5,0.4,0.9,0.9,0.9H58.1z M52.4,63.6h4.8v6.7h-4.8V63.6z"/>
	<path class="st0" d="M98.5,72c0.5,0,0.9-0.4,0.9-0.9v-8.5c0-0.5-0.4-0.9-0.9-0.9h-6.6c-0.5,0-0.9,0.4-0.9,0.9v8.5
		c0,0.5,0.4,0.9,0.9,0.9H98.5z M92.8,63.6h4.8v6.7h-4.8V63.6z"/>
	<path class="st0" d="M61.8,72h26.3c0.5,0,0.9-0.4,0.9-0.9v-8.5c0-0.5-0.4-0.9-0.9-0.9H61.8c-0.5,0-0.9,0.4-0.9,0.9v8.5
		C61,71.7,61.4,72,61.8,72z M82.5,63.6h4.8v6.7h-4.8V63.6z M75.9,63.6h4.8v6.7h-4.8V63.6z M69.3,63.6h4.8v6.7h-4.8V63.6z M62.7,63.6
		h4.8v6.7h-4.8V63.6z"/>
</g>
</svg>
